shields/template_usaal_wide.svg

<?xml version="1.0" encoding="UTF-8" standalone="no"?>
<!-- Created with Inkscape (http://www.inkscape.org/) -->

<svg
   xmlns:dc="http://purl.org/dc/elements/1.1/"
   xmlns:cc="http://creativecommons.org/ns#"
   xmlns:rdf="http://www.w3.org/1999/02/22-rdf-syntax-ns#"
   xmlns:svg="http://www.w3.org/2000/svg"
   xmlns="http://www.w3.org/2000/svg"
   xmlns:sodipodi="http://sodipodi.sourceforge.net/DTD/sodipodi-0.dtd"
   xmlns:inkscape="http://www.inkscape.org/namespaces/inkscape"
   width="750"
   height="600"
   viewbox="0 0 750 600"
   id="svg2"
   sodipodi:version="0.32"
   inkscape:version="0.91 r"
   version="1.0"
   sodipodi:docname="template_usaal_wide.svg">
  <defs
     id="defs4" />
  <sodipodi:namedview
     id="base"
     pagecolor="#ffffff"
     bordercolor="#666666"
     borderopacity="1.0"
     inkscape:pageopacity="0.0"
     inkscape:pageshadow="2"
     inkscape:zoom="0.30933333"
     inkscape:cx="-552.8994"
     inkscape:cy="-63.003775"
     inkscape:document-units="px"
     inkscape:current-layer="g4165"
     inkscape:window-width="1920"
     inkscape:window-height="1020"
     inkscape:window-x="0"
     inkscape:window-y="0"
     width="750px"
     showgrid="false"
     inkscape:window-maximized="1" />
  <metadata
     id="metadata7">
    <rdf:RDF>
      <cc:Work
         rdf:about="">
        <dc:format>image/svg+xml</dc:format>
        <dc:type
           rdf:resource="http://purl.org/dc/dcmitype/StillImage" />
        <dc:title />
      </cc:Work>
    </rdf:RDF>
  </metadata>
  <g
     inkscape:label="Layer 1"
     inkscape:groupmode="layer"
     id="layer1">
    <g
       style="overflow:visible"
       id="g1366"
       transform="translate(205.7143,95.21933)">
      <path
         style="color:black;fill:black;fill-opacity:1;fill-rule:nonzero;stroke:none;stroke-width:0.8735441;stroke-linecap:butt;stroke-linejoin:miter;stroke-miterlimit:4;stroke-dashoffset:0;stroke-opacity:1;marker:none;marker-start:none;marker-mid:none;marker-end:none;visibility:visible;display:inline;overflow:visible"
         d="M -168.21429,-95.21933 L 506.78571,-95.21933 C 527.56071,-95.21933 544.28571,-78.49433 544.28571,-57.71933 L 544.28571,467.28067 C 544.28571,488.05567 527.56071,504.78067 506.78571,504.78067 L -168.21429,504.78067 C -188.98929,504.78067 -205.71429,488.05567 -205.71429,467.28067 L -205.71429,-57.71933 C -205.71429,-78.49433 -188.98929,-95.21933 -168.21429,-95.21933 z "
         id="rect1877" />
      <path
         id="path7"
         d="" />
      <path
         style="fill:white;fill-opacity:1;stroke:none;stroke-opacity:1"
         d="M -63.140574,490.53704 C -65.965537,488.71294 -66.11264,488.26506 -64.618261,486.03841 C -61.835013,481.89142 -56.454085,480.24553 -38.773426,478.13297 C -21.219086,476.03566 -16.097923,474.89282 -16.097923,473.07298 C -16.097923,471.28256 -32.588398,453.57061 -38.488739,449.02371 C -43.430754,445.21526 -44.262962,443.88795 -46.061001,436.94654 C -51.224911,417.01099 -61.571884,405.5021 -74.128145,405.72765 C -89.469498,406.00332 -101.09861,424.48375 -103.26956,452.03791 C -104.25467,464.54105 -104.99426,467.97767 -107.78098,473.00126 C -110.73249,478.32202 -111.98839,479.12865 -117.35357,479.14975 C -120.16213,479.16081 -122.71207,478.11025 -126.14648,475.52742 C -132.59912,470.67462 -135.1965,470.02439 -148.45933,469.94194 C -157.58366,469.88525 -160.33856,469.49791 -162.85733,467.91804 C -164.57045,466.84346 -168.59475,465.67771 -171.80026,465.32729 C -175.00577,464.97697 -177.67615,464.18181 -177.73443,463.56039 C -177.79273,462.93887 -178.00708,461.28942 -178.21073,459.89486 C -178.41442,458.50029 -178.98737,451.95474 -179.48401,445.34925 C -179.98063,438.74365 -180.56328,432.12578 -180.77881,430.64288 C -180.99433,429.15988 -181.54976,422.46969 -182.01305,415.77576 C -182.47638,409.08182 -183.09005,401.32295 -183.37674,398.53382 C -183.66344,395.74467 -184.2044,389.69732 -184.57889,385.09525 C -184.9534,380.49316 -185.56623,372.9625 -185.94073,368.36041 C -186.31521,363.75833 -186.85953,357.71098 -187.15034,354.92184 C -187.44111,352.1327 -188.01474,345.51483 -188.42504,340.21548 C -188.83535,334.91611 -189.41636,328.29824 -189.71621,325.50911 C -190.01603,322.71996 -190.61883,315.46121 -191.05575,309.37856 C -191.49268,303.296 -192.2559,293.93971 -192.75175,288.58679 C -193.72824,278.04599 -194.62306,283.15518 -179.0574,210.39377 C -175.53701,193.93784 -169.74176,166.78179 -166.1791,150.04695 C -162.6164,133.31213 -153.12488,88.812686 -145.08678,51.159316 C -137.04873,13.505951 -127.61926,-30.765283 -124.13247,-47.221209 C -120.64565,-63.677125 -117.4739,-78.396167 -117.08413,-79.930192 L -116.37542,-82.719331 L 167.05047,-82.719331 L 450.47637,-82.719331 L 451.91209,-77.394613 C 452.70166,-74.466019 460.50741,-44.913831 469.25802,-11.723076 C 478.00878,21.46767 494.62075,84.451488 506.17373,128.24096 C 517.72662,172.03043 527.95339,211.05302 528.89982,214.95781 C 533.12785,232.40037 532.70683,243.33633 527.65831,247.21373 C 524.38904,249.72456 521.07867,257.09265 519.82205,264.65518 C 519.35857,267.44432 517.92249,271.31696 516.6306,273.26114 C 513.45291,278.04355 513.69522,282.42797 517.66862,292.03945 C 520.56724,299.05114 521.10261,302.35764 521.60945,316.38101 C 522.09099,329.6989 521.77199,334.15452 519.83044,341.2297 C 517.92833,348.16127 517.54129,353.17726 517.85558,366.82588 C 518.24617,383.79063 518.24439,383.80259 515.05003,386.34984 C 513.28603,387.75638 510.26034,388.94617 508.29819,389.0048 C 506.34264,389.06322 399.85918,389.0267 271.66818,388.92356 L 38.593519,388.73612 L 38.435,391.09938 C 37.477503,405.37451 40.201783,411.55565 52.631965,423.3109 C 65.220947,435.21636 66.392961,448.91103 55.594412,457.92623 C 53.11997,459.99192 49.717503,464.76053 47.639072,469.07559 L 44.007396,476.6154 L 18.72434,484.00813 L -6.5587201,491.40076 L -33.280996,491.98181 C -58.683951,492.53417 -60.158173,492.46277 -63.140574,490.53704 z "
         id="path1483" />
      <g
         style="overflow:visible"
         id="g4165"
         transform="matrix(1,0,0,1.00064,-1117.941,-617.729)">
        <text
           xml:space="preserve"
           style="font-style:normal;font-variant:normal;font-weight:normal;font-stretch:normal;font-size:507.57452393px;line-height:125%;font-family:'Roadgeek 2014 Series D';-inkscape-font-specification:'Roadgeek 2014 Series D';text-align:center;letter-spacing:-49.98400879px;word-spacing:0px;writing-mode:lr-tb;text-anchor:middle;fill:#000000;fill-opacity:1;stroke:none;stroke-width:1px;stroke-linecap:butt;stroke-linejoin:miter;stroke-opacity:1"
           x="1287.0111"
           y="910.72302"
           id="text4139"
           sodipodi:linespacing="125%"
           transform="scale(1.0003199,0.9996802)"><tspan
             sodipodi:role="line"
             id="tspan4141"
             x="1262.0192"
             y="910.72302">***NUMBER***</tspan></text>
      </g>
    </g>
  </g>
</svg>

<svg xmlns="http://www.w3.org/2000/svg" viewbox="0 0 750 600" width="750" height="600"><g transform="translate(205.71 95.22)"><path d="m-168.21-95.22h675c20.775 0 37.5 16.725 37.5 37.5v525c0 20.775-16.725 37.5-37.5 37.5h-675c-20.775 0-37.5-16.725-37.5-37.5v-525c0-20.775 16.725-37.5 37.5-37.5" color="#000"/><path d="m-63.14 490.54c-2.825-1.824-2.972-2.272-1.478-4.499 2.783-4.147 8.164-5.793 25.845-7.905 17.554-2.097 22.676-3.24 22.676-5.06 0-1.79-16.49-19.502-22.391-24.05-4.942-3.808-5.774-5.136-7.572-12.08-5.164-19.936-15.511-31.444-28.07-31.22-15.341.276-26.97 18.756-29.14 46.31-.985 12.503-1.725 15.94-4.511 20.963-2.952 5.321-4.207 6.127-9.573 6.148-2.809.011-5.358-1.039-8.793-3.622-6.453-4.853-9.05-5.503-22.313-5.585-9.124-.057-11.879-.444-14.398-2.024-1.713-1.075-5.737-2.24-8.943-2.591-3.206-.35-5.876-1.145-5.934-1.767-.058-.622-.273-2.271-.476-3.666-.204-1.395-.777-7.94-1.273-14.546-.497-6.606-1.079-13.223-1.295-14.706-.216-1.483-.771-8.173-1.234-14.867-.463-6.694-1.077-14.453-1.364-17.242-.287-2.789-.828-8.837-1.202-13.439-.375-4.602-.987-12.133-1.362-16.735-.374-4.602-.919-10.649-1.21-13.439-.291-2.789-.864-9.407-1.275-14.706-.41-5.299-.991-11.917-1.291-14.706-.3-2.789-.903-10.05-1.34-16.13-.437-6.083-1.2-15.439-1.696-20.792-.976-10.541-1.871-5.432 13.694-78.19 3.52-16.456 9.316-43.612 12.878-60.35 3.563-16.735 13.05-61.23 21.09-98.89 8.04-37.653 17.468-81.925 20.954-98.38 3.487-16.456 6.659-31.17 7.05-32.709l.709-2.789h283.43 283.43l1.436 5.325c.79 2.929 8.595 32.481 17.346 65.67 8.751 33.19 25.363 96.17 36.916 139.96 11.553 43.789 21.78 82.81 22.726 86.72 4.228 17.443 3.807 28.379-1.242 32.26-3.269 2.511-6.58 9.879-7.836 17.441-.463 2.789-1.9 6.662-3.191 8.606-3.178 4.782-2.935 9.167 1.038 18.778 2.899 7.01 3.434 10.318 3.941 24.342.482 13.318.163 17.774-1.779 24.849-1.902 6.932-2.289 11.948-1.975 25.596.391 16.965.389 16.977-2.806 19.524-1.764 1.407-4.79 2.596-6.752 2.655-1.956.058-108.44.022-236.63-.081l-233.07-.187-.159 2.363c-.957 14.275 1.767 20.456 14.197 32.21 12.589 11.905 13.761 25.6 2.962 34.615-2.474 2.066-5.877 6.834-7.955 11.149l-3.632 7.54-25.283 7.393-25.283 7.393-26.722.581c-25.403.552-26.877.481-29.86-1.445" fill="#fff"/><text x="1287.01" y="910.72" transform="matrix(1.0003 0 0 1.0003-1117.94-617.73)" font-family="&apos;Roadgeek 2014 Series D&apos;" letter-spacing="-49.984" word-spacing="0" text-anchor="middle" text-align="center" line-height="125%" font-size="507.57"><tspan x="1262.02" y="910.72">***NUMBER***</tspan></text></g></svg>
